X:5
T:RVW2/2/5 Never Sail No More
C:Mr. Broomfield, Herongate, Essex, 22 February 1904
L:1/4
Q:1/4=110
M:4/4
I:linebreak $
K:F
"^(Editorial suggestion " F | C F A (G/F/) | (E F) (G/A/) B | c B A (G/F/) | C3 F |$ C F A (G/F/) | 
w: In|Lon- don lived a _|hire- * son (?) un-|to a gen- tle- *|man and|all the fa- ther's *|
E F (G/A/) B | c c B A | F3 (c/>d/) |$ _e d (c/B/) A | B c2 (c/B/) | A (G/F/) E F | C3 C |$ 
w: care it was _ to|wed her to a|man. This _|far- mer's son * being|hand- some gained _|this young _ la- dy's|heart, he|
F3/2 G/ A (G/F/) | (E F) (G/A/) B | c c B A | F3 |] 
w: was so close en- *|ga- * ged * no|rea- son could them|part.|



